polaris-icons/icons/SidekickMajor.svg

<svg width="20" height="20" viewBox="0 0 20 20" fill="none" xmlns="http://www.w3.org/2000/svg"><path d="M11.0516 14.6508L11.0491 14.652C10.2661 15.0291 9.47894 14.9 8.68607 14.54C8.41657 14.4176 8.11559 14.4506 7.92177 14.6227C7.82275 14.7106 7.75271 14.8365 7.74783 14.9853C7.74297 15.1336 7.80357 15.2728 7.90494 15.3898C8.41791 15.9819 9.18869 16.3649 9.99951 16.3792C10.8866 16.4169 11.7107 15.9326 12.1727 15.233C12.2554 15.1078 12.2986 14.9655 12.276 14.8214C12.2531 14.6756 12.1678 14.5616 12.0586 14.4897C11.8467 14.35 11.552 14.3636 11.3086 14.5118C11.2218 14.5646 11.1366 14.6111 11.0516 14.6508Z" fill="#4A4A4A"/><path fill-rule="evenodd" clip-rule="evenodd" d="M2.4209 5.96805C2.3571 6.17768 2.20215 6.84305 2.20215 7.74213C2.06748 8.52317 2.11859 9.30098 2.06748 10.6492L2.0039 12.322C1.90011 15.0519 3.88151 18.0172 6.58746 18.3925C8.66523 18.6808 10.7721 18.6911 12.8526 18.4231L13.0865 18.393C13.3436 18.3599 13.4968 18.3401 13.6317 18.3156C16.1347 17.8613 17.9654 15.0973 17.9997 12.5537C18.0015 12.4168 17.9956 12.2625 17.9858 12.0037L17.9333 10.622C17.9039 9.8483 17.8811 9.24685 17.8285 8.7454L17.8349 8.59373C17.8673 7.89817 17.8596 7.79792 17.7812 7.33982C17.6774 6.73331 17.4413 6.0967 17.2393 5.71277C16.9451 5.15385 16.4688 4.58272 15.7304 4.58272L15.5304 4.37571C13.9272 2.71479 13.18 2.34364 9.7334 2.00781C7.77757 1.94614 6.86112 2.2533 5.65527 2.84305C4.50729 3.40461 3.3381 4.17839 2.9209 4.7493C2.62402 5.15555 2.51814 5.64856 2.4209 5.96805ZM12.8481 6.31343C13.6103 6.38564 14.3105 6.45199 14.8662 6.36706C14.8662 6.36706 15.1698 7.20697 15.913 7.9531C15.998 8.03841 16.0781 8.11623 16.1531 8.18914C16.3177 8.34907 16.4584 8.48577 16.5729 8.62574C16.5915 8.75681 16.607 8.90194 16.6205 9.06659C16.4021 8.96206 16.1494 8.88707 15.8584 8.85133C14.719 8.76995 13.8272 9.21174 12.9142 9.66404C12.0378 10.0982 11.1418 10.5421 9.98846 10.5421C8.83517 10.5421 7.93912 10.0982 7.06266 9.66404C6.14965 9.21174 5.25785 8.76995 4.11849 8.85133C3.83917 8.88563 3.59522 8.95607 3.38296 9.05408C3.42006 8.61302 3.47138 8.31031 3.55931 8.04302C3.80164 7.3065 4.24393 6.66607 4.82222 6.18333C4.8991 6.15166 4.97899 6.12363 5.06162 6.09892L5.5045 6.11404C5.45047 7.5257 5.79181 8.46453 5.99705 8.52317C6.16459 8.57104 6.4026 8.24895 6.71756 7.82273C6.83051 7.66989 6.95335 7.50365 7.08639 7.33628C7.24473 7.13707 7.63468 6.84799 8.16062 6.54566C8.25973 7.26197 8.46027 7.70255 8.5988 7.74213C8.76634 7.79 9.00435 7.46791 9.31931 7.04169C9.43225 6.88885 9.5551 6.72261 9.68814 6.55524C9.79124 6.42552 9.92612 6.30562 10.0936 6.19707C10.1256 6.19745 10.1575 6.19764 10.1892 6.19764C10.4838 6.19764 10.8076 6.2001 11.1465 6.20267C11.7252 6.20705 12.3026 6.26175 12.8481 6.31343ZM3.56756 14.2745C4.11835 15.7235 5.30112 16.9695 6.75686 17.1715C8.72622 17.4447 10.7232 17.4544 12.6951 17.2004L12.9075 17.1731C13.1924 17.1364 13.4115 17.1027 13.4115 17.1027C14.7727 16.8556 15.8751 15.6495 16.4123 14.2728C16.1838 14.4055 15.9165 14.5153 15.6032 14.5936C14.8683 14.7773 13.8557 14.5119 12.732 13.9237C12.3419 13.7195 12.0432 13.4796 11.7635 13.2551C11.2543 12.8462 10.8083 12.4881 9.98846 12.4881C9.16867 12.4881 8.72258 12.8462 8.21337 13.2551C7.93371 13.4796 7.635 13.7195 7.24486 13.9237C6.12117 14.5119 5.10858 14.7773 4.3737 14.5936C4.06169 14.5156 3.79541 14.4065 3.56756 14.2745ZM5.534 13.0557C6.27075 13.0557 6.868 12.4584 6.868 11.7217C6.868 10.9849 6.27075 10.3877 5.534 10.3877C4.79725 10.3877 4.2 10.9849 4.2 11.7217C4.2 12.4584 4.79725 13.0557 5.534 13.0557ZM12.932 11.7217C12.932 12.4584 13.5293 13.0557 14.266 13.0557C15.0027 13.0557 15.6 12.4584 15.6 11.7217C15.6 10.9849 15.0027 10.3877 14.266 10.3877C13.5293 10.3877 12.932 10.9849 12.932 11.7217Z" fill="#4A4A4A"/></svg>

<svg viewBox="0 0 20 20" xmlns="http://www.w3.org/2000/svg"><path d="M11.052 14.65l-.003.002c-.783.377-1.57.248-2.363-.112-.27-.122-.57-.09-.764.083a.505.505 0 00-.174.362.59.59 0 00.157.405 2.875 2.875 0 002.095.99c.887.037 1.71-.447 2.173-1.147a.582.582 0 00.103-.412.486.486 0 00-.217-.331c-.212-.14-.507-.126-.75.022-.087.053-.172.1-.257.139z" fill="#5C5F62"/><path fill-rule="evenodd" d="M2.42 5.968c-.063.21-.218.875-.218 1.774-.135.781-.083 1.559-.135 2.907l-.063 1.673c-.104 2.73 1.878 5.695 4.583 6.07 2.078.289 4.185.3 6.266.031l.233-.03c.258-.033.41-.053.546-.077 2.503-.455 4.333-3.219 4.368-5.762.002-.137-.004-.292-.014-.55l-.053-1.382c-.03-.774-.052-1.375-.105-1.877l.007-.151c.032-.696.025-.796-.054-1.254a5.99 5.99 0 00-.542-1.627c-.294-.56-.77-1.13-1.509-1.13l-.2-.207c-1.603-1.661-2.35-2.032-5.797-2.368-1.955-.062-2.872.245-4.078.835-1.148.562-2.317 1.335-2.734 1.906-.297.407-.403.9-.5 1.22zm10.428.345c.762.073 1.462.139 2.018.054 0 0 .304.84 1.047 1.586.085.085.165.163.24.236.165.16.305.297.42.437.018.13.034.276.047.44a2.443 2.443 0 00-.762-.215c-1.139-.081-2.03.36-2.944.813-.876.434-1.772.878-2.926.878-1.153 0-2.049-.444-2.925-.878-.913-.452-1.805-.894-2.945-.813-.279.035-.523.105-.735.203.037-.441.088-.744.176-1.011a4.084 4.084 0 011.263-1.86c.077-.031.157-.06.24-.084l.442.015c-.054 1.412.288 2.35.493 2.41.168.047.406-.275.72-.701.114-.153.236-.32.37-.487.158-.199.548-.488 1.074-.79.099.716.3 1.157.438 1.196.167.048.405-.274.72-.7.113-.153.236-.32.37-.487.102-.13.237-.25.405-.358h.095c.295 0 .619.003.957.006.58.004 1.157.059 1.702.11zm-9.28 7.962c.55 1.448 1.733 2.694 3.189 2.897 1.97.273 3.966.282 5.938.028l.213-.027c.284-.037.504-.07.504-.07 1.36-.247 2.463-1.454 3-2.83a3.094 3.094 0 01-.809.32c-.735.184-1.747-.081-2.871-.67-.39-.204-.689-.443-.968-.668-.51-.409-.956-.767-1.776-.767-.82 0-1.265.358-1.775.767-.28.225-.578.464-.968.669-1.124.588-2.136.853-2.871.67a3.094 3.094 0 01-.806-.32zm1.966-1.22a1.334 1.334 0 100-2.667 1.334 1.334 0 000 2.668zm7.398-1.333a1.334 1.334 0 102.668 0 1.334 1.334 0 00-2.668 0z" fill="#5C5F62"/></svg>
